svgs/light/grip-lines-vertical.svg

<svg xmlns="http://www.w3.org/2000/svg" viewBox="0 0 192 512"><!--! Font Awesome Pro 6.4.0 by @fontawesome - https://fontawesome.com License - https://fontawesome.com/license (Commercial License) Copyright 2023 Fonticons, Inc. --><path d="M32 32c-8.8 0-16 7.2-16 16l0 416c0 8.8 7.2 16 16 16s16-7.2 16-16L48 48c0-8.8-7.2-16-16-16zm128 0c-8.8 0-16 7.2-16 16l0 416c0 8.8 7.2 16 16 16s16-7.2 16-16l0-416c0-8.8-7.2-16-16-16z"/></svg>

<svg xmlns="http://www.w3.org/2000/svg" viewBox="0 0 192 512"><!-- Font Awesome Pro 6.0.0-alpha2 by @fontawesome - https://fontawesome.com License - https://fontawesome.com/license (Commercial License) --><path d="M16 48V464C16 472.8 23.2 480 32 480H32C40.8 480 48 472.8 48 464V48C48 39.2 40.8 32 32 32H32C23.2 32 16 39.2 16 48ZM144 48V464C144 472.8 151.2 480 160 480H160C168.8 480 176 472.8 176 464V48C176 39.2 168.8 32 160 32H160C151.2 32 144 39.2 144 48Z"/></svg>
